documentation/public/assets/images/image.svg

<svg width="90" height="79" viewBox="0 0 90 79" fill="none" xmlns="http://www.w3.org/2000/svg">
<path fill-rule="evenodd" clip-rule="evenodd" d="M0 0H89.3333V78.1667H0V0ZM8.375 8.375V40.5529L28.0046 22.0627L55.7686 49.8407L80.9583 23.4474V8.375H8.375ZM80.9583 35.5776L55.907 61.8259L27.8287 33.7339L8.375 52.0584V69.7917H80.9583V35.5776Z" fill="#757575"/>
<path d="M64.209 25.125C64.209 29.7502 60.4592 33.5 55.834 33.5C51.2088 33.5 47.459 29.7502 47.459 25.125C47.459 20.4996 51.2088 16.75 55.834 16.75C60.4592 16.75 64.209 20.4996 64.209 25.125Z" fill="#757575"/>
</svg>

<svg width="90" height="79" fill="none" xmlns="http://www.w3.org/2000/svg"><path fill-rule="evenodd" clip-rule="evenodd" d="M0 0h89.33v78.17H0V0Zm8.38 8.38v32.17L28 22.06l27.77 27.78 25.19-26.4V8.38H8.38Zm72.58 27.2L55.9 61.83l-28.08-28.1L8.38 52.06v17.73h72.58V35.58Z" fill="#757575"/><path d="M64.2 25.13a8.38 8.38 0 1 1-16.74 0 8.38 8.38 0 0 1 16.75 0Z" fill="#757575"/></svg>
